X:1
T:Title
%%score { ( 1 3 ) | ( 2 4 ) }
L:1/8
M:3/4
K:F
V:1 treble nm="Grand Piano"
V:3 treble 
V:2 bass 
V:4 bass 
V:1
 z2 z2[Q:1/4=100] cd | c2 A2 [EG][EA] | F2 C2 C[B,C] | [A,CF]2 [CEG]2 [CFA][CFc] | %4
[M:2/4] [FA]2 [EG]2 |[M:1/4] [Ec][Ed] |[M:3/4] [Fc]2 [FA]2 [EG][EA] | [DF]2 [DF]2 [Fd][Fd] | %8
 [Fc][CFA] [B,EG]2 [CEA]2 |[M:2/4] [A,F]4 |[M:1/4] FF |[M:3/4] [Fd]2 [Fd]2 fd | d2 c2 AA | %13
 Gc d2 e2 |[M:5/8] [Ec]-[Ec]- [Ec]3 |[M:1/4] cd |[M:3/4] c2 A2 [EG][EA] | [DF]2 [DF]2 [Fd][Fd] | %18
 [Fc][CFA] [B,EG]2 [CEA]2 |[M:2/4] [A,F]4 |] %20
V:2
 z2 z2 [F,A,F][F,B,F] | [F,A,F]2 [F,CF]2 [C,B,][C,C] | [F,A,C]2 [F,A,]2 A,G, | F,2 C,2 F,A,, | %4
[M:2/4] [C,C]4 |[M:1/4] [C,B,][C,B,] |[M:3/4] [F,A,]2 [F,C]2 [C,B,][C,C] | %7
 [D,A,]2 [D,A,]2 [B,,B,][B,,B,] | [C,A,]C, C,2 C,2 |[M:2/4] F,4 |[M:1/4] F,F, | %11
[M:3/4] [B,,B,]2 [B,,B,]2[K:treble] [B,DF][B,F] | [F,B,F]2 [F,A,F]2 [F,CF][F,CF] | %13
 [G,CE][G,CE] [G,=B,F]2 [G,B,G]2 |[M:5/8][K:bass] C2 z z2 |[M:1/4] [F,A,F][F,B,F] | %16
[M:3/4] [F,A,F]2 [F,CF]2 [C,B,][C,C] | [D,A,]2 [D,A,]2 [B,,B,][B,,B,] | [C,A,]C, C,2 C,2 | %19
[M:2/4] F,4 |] %20
V:3
 x6 | x6 | x6 | x6 |[M:2/4] x4 |[M:1/4] x2 |[M:3/4] x6 | x6 | x6 |[M:2/4] x4 |[M:1/4] x2 | %11
[M:3/4] x6 | x6 | x6 |[M:5/8] z2 B,3 |[M:1/4] x2 |[M:3/4] x6 | x6 | x6 |[M:2/4] x4 |] %20
V:4
 x6 | x6 | x6 | x6 |[M:2/4] x4 |[M:1/4] x2 |[M:3/4] x6 | x6 | x6 |[M:2/4] x4 |[M:1/4] x2 | %11
[M:3/4] x4[K:treble] x2 | x6 | x6 |[M:5/8][K:bass] C,-C,- C,3 |[M:1/4] x2 |[M:3/4] x6 | x6 | x6 | %19
[M:2/4] x4 |] %20

